public/wheat.svg

<svg xmlns="http://www.w3.org/2000/svg" viewBox="0 0 512 512" style="height: 512px; width: 512px;"><path d="M0 0h512v512H0z" fill="#000" fill-opacity="1"></path><g class="" transform="translate(0,0)" style=""><path d="M98.344 16.688C79.692 43.785 68.498 69.01 65.5 89.56l23.938 39.157 28.624-33.47c.868-21.213-5.49-48.677-19.718-78.563zM472.5 19.625C444.04 36.055 423.112 54 411.562 71.25l4.75 45.688L456.563 99c9.89-18.777 15.938-46.29 15.938-79.375zm-91.75 27.28c-10.153 21.036-16.8 40.84-20.156 58.314l18.375 57.686 19.78-34.25-6.5-62.22h.03c-3.422-6.392-7.252-12.906-11.53-19.53zM27.25 80.782c-.125 23.364 2.393 44.102 6.875 61.314L75.5 186.25l3.125-39.406L46 93.47l.03-.032c-5.83-4.287-12.08-8.52-18.78-12.657zm132.844 10.532c-8.415 3.504-16.29 7.213-23.594 11.094l-39.25 45.97-3.094 39.374 50.438-39.094c6.712-15.904 12.09-35.263 15.5-57.344zm177.22 21.626c-24.024 58.09-16.16 97.86 7.873 108.5l21.157-36.625-19.594-61.438c-2.973-3.46-6.108-6.943-9.438-10.438zm146.03.218c-4.55-.028-8.97.084-13.28.28L414.935 138l-19.78 34.28 62.343-13.655c12.897-11.47 26.09-26.626 38.656-45.094-4.358-.216-8.64-.348-12.812-.374zm-226.094 8.72c-23.24 23.238-38.832 46.003-45.53 65.655l16.436 42.907 34.22-27.75c4.695-20.704 3.436-48.856-5.126-80.812zM16.406 159.06c3.28 62.77 27.482 95.31 53.75 94.594l3.344-42.22-44.063-47c-4.175-1.844-8.515-3.647-13.03-5.374zm143.22 11.375c-6.457 1.354-12.63 2.896-18.5 4.563l-48.97 37.938-3.312 41.75c26.492 7.51 57.16-20.567 70.78-84.25zm16.06 1.563c-4.36 22.935-5.65 43.762-4.374 61.5l32.688 51 10.22-38.188-22.407-58.437h.03c-4.952-5.28-10.318-10.592-16.155-15.875zm267.408 8.938l-60.563 13.218-20.936 36.25c20.682 18.195 60.438 6.035 100.125-45.625-6.413-1.552-12.62-2.823-18.626-3.843zm-138.688 25.53c-8.912 1.92-17.304 4.16-25.187 6.657l-46.97 38.03-10.22 38.19 56.69-29.283c9.493-14.424 18.323-32.49 25.686-53.593zm155.125 25.063c-25.85 20.324-44.046 41.06-53.03 59.782l11.22 44.532 37.28-23.47c7.126-19.99 9.236-48.088 4.53-80.843zm-123.342 8.595c-34.435 77.573-59.394 159.06-62.97 253.03h18.72c3.558-90.792 27.573-169.428 61.312-245.436l-17.063-7.595zm-185.375 6.906c-8.173 62.347 9.714 98.713 35.687 102.75l10.97-40.874-34.814-54.25c-3.77-2.57-7.713-5.105-11.844-7.625zm221.75 24.532c-7.053 22.243-10.817 42.77-11.657 60.532l26.406 54.594L402 349.967l-15.28-60.687h.06c-4.3-5.848-9.033-11.76-14.217-17.717zm-302.47 1.532c-8.664 74.584-8.13 147.835 12.188 220.062h19.44c-20.877-70.772-21.764-143.02-13.064-217.906l-18.562-2.156zm219.47 11.094c-6.613.16-12.953.54-19.032 1.125L215.5 313.78l-10.844 40.408c24.69 12.23 59.938-9.82 84.906-70zm206.718 36.937c-9.072.844-17.664 2.052-25.78 3.594l-51.156 32.217-14.688 36.657 59.75-22.313c11.14-13.193 22.055-30.075 31.875-50.155zm-157.31 22c-15.528 60.938-2.096 99.19 23.217 106.28l15.72-39.28-28.094-58.03c-3.43-3-7.053-5.985-10.844-8.97zM183.25 368.72c-12.674 41.233-22.26 82.547-26.844 124.436h18.813c4.507-39.722 13.69-79.23 25.905-118.97l-17.875-5.467zm270 26.655l-58 21.688-15.563 38.875c23.056 15.098 60.673-2.606 92.625-59.407-6.594-.627-12.95-1.003-19.062-1.155zM356.5 469.03c-1.874 7.713-3.185 15.757-3.656 24.126h18.687c.45-6.686 1.55-13.206 3.126-19.687l-18.156-4.44z" fill="#fff" fill-opacity="1"></path></g></svg>

<?xml version="1.0" encoding="UTF-8" standalone="no"?>
<!DOCTYPE svg PUBLIC "-//W3C//DTD SVG 1.1//EN" "http://www.w3.org/Graphics/SVG/1.1/DTD/svg11.dtd">
<svg width="100%" height="100%" viewBox="0 0 512 512" version="1.1" xmlns="http://www.w3.org/2000/svg" xmlns:xlink="http://www.w3.org/1999/xlink" xml:space="preserve" xmlns:serif="http://www.serif.com/" style="fill-rule:evenodd;clip-rule:evenodd;stroke-linejoin:round;stroke-miterlimit:2;">
    <g>
        <path d="M98.344,16.688C79.692,43.785 68.498,69.01 65.5,89.56L89.438,128.717L118.062,95.247C118.93,74.034 112.572,46.57 98.344,16.684L98.344,16.688ZM472.5,19.625C444.04,36.055 423.112,54 411.562,71.25L416.312,116.938L456.563,99C466.453,80.223 472.501,52.71 472.501,19.625L472.5,19.625ZM380.75,46.905C370.597,67.941 363.95,87.745 360.594,105.219L378.969,162.905L398.749,128.655L392.249,66.435L392.279,66.435C388.857,60.043 385.027,53.529 380.749,46.905L380.75,46.905ZM27.25,80.782C27.125,104.146 29.643,124.884 34.125,142.096L75.5,186.25L78.625,146.844L46,93.47L46.03,93.438C40.2,89.151 33.95,84.918 27.25,80.781L27.25,80.782ZM160.094,91.314C151.679,94.818 143.804,98.527 136.5,102.408L97.25,148.378L94.156,187.752L144.594,148.658C151.306,132.754 156.684,113.395 160.094,91.314ZM337.314,112.94C313.29,171.03 321.154,210.8 345.187,221.44L366.344,184.815L346.75,123.377C343.777,119.917 340.642,116.434 337.312,112.939L337.314,112.94ZM483.344,113.158C478.794,113.13 474.374,113.242 470.064,113.438L414.935,138L395.155,172.28L457.498,158.625C470.395,147.155 483.588,131.999 496.154,113.531C491.796,113.315 487.514,113.183 483.342,113.157L483.344,113.158ZM257.25,121.878C234.01,145.116 218.418,167.881 211.72,187.533L228.156,230.44L262.376,202.69C267.071,181.986 265.812,153.834 257.25,121.878ZM16.406,159.06C19.686,221.83 43.888,254.37 70.156,253.654L73.5,211.434L29.437,164.434C25.262,162.59 20.922,160.787 16.407,159.06L16.406,159.06ZM159.626,170.435C153.169,171.789 146.996,173.331 141.126,174.998L92.156,212.936L88.844,254.686C115.336,262.196 146.004,234.119 159.624,170.436L159.626,170.435ZM175.686,171.998C171.326,194.933 170.036,215.76 171.312,233.498L204,284.498L214.22,246.31L191.813,187.873L191.843,187.873C186.891,182.593 181.525,177.281 175.688,171.998L175.686,171.998ZM443.094,180.936L382.531,194.154L361.595,230.404C382.277,248.599 422.033,236.439 461.72,184.779C455.307,183.227 449.1,181.956 443.094,180.936ZM304.406,206.466C295.494,208.386 287.102,210.626 279.219,213.123L232.249,251.153L222.029,289.343L278.719,260.06C288.212,245.636 297.042,227.57 304.405,206.467L304.406,206.466ZM459.531,231.529C433.681,251.853 415.485,272.589 406.501,291.311L417.721,335.843L455.001,312.373C462.127,292.383 464.237,264.285 459.531,231.53L459.531,231.529ZM336.189,240.124C301.754,317.697 276.795,399.184 273.219,493.154L291.939,493.154C295.497,402.362 319.512,323.726 353.251,247.718L336.188,240.123L336.189,240.124ZM150.814,247.03C142.641,309.377 160.528,345.743 186.501,349.78L197.471,308.906L162.657,254.656C158.887,252.086 154.944,249.551 150.813,247.031L150.814,247.03ZM372.564,271.562C365.511,293.805 361.747,314.332 360.907,332.094L387.313,386.688L402,349.967L386.72,289.28L386.78,289.28C382.48,283.432 377.747,277.52 372.563,271.563L372.564,271.562ZM70.094,273.094C61.43,347.678 61.964,420.929 82.282,493.156L101.722,493.156C80.845,422.384 79.958,350.136 88.658,275.25L70.096,273.094L70.094,273.094ZM289.564,284.188C282.951,284.348 276.611,284.728 270.532,285.313L215.5,313.78L204.656,354.188C229.346,366.418 264.594,344.368 289.562,284.188L289.564,284.188ZM496.282,321.125C487.21,321.969 478.618,323.177 470.502,324.719L419.346,356.936L404.658,393.593L464.408,371.28C475.548,358.087 486.463,341.205 496.283,321.125L496.282,321.125ZM338.972,343.125C323.444,404.063 336.876,442.315 362.189,449.405L377.909,410.125L349.815,352.095C346.385,349.095 342.762,346.11 338.971,343.125L338.972,343.125ZM183.25,368.72C170.576,409.953 160.99,451.267 156.406,493.156L175.219,493.156C179.726,453.434 188.909,413.926 201.124,374.186L183.249,368.719L183.25,368.72ZM453.25,395.375L395.25,417.063L379.687,455.938C402.743,471.036 440.36,453.332 472.312,396.531C465.718,395.904 459.362,395.528 453.25,395.376L453.25,395.375ZM356.5,469.03C354.626,476.743 353.315,484.787 352.844,493.156L371.531,493.156C371.981,486.47 373.081,479.95 374.657,473.469L356.501,469.029L356.5,469.03Z" style="fill:white;fill-rule:nonzero;"/>
    </g>
</svg>
